OBS Studio/Fluent Dark Grey/settings/hotkeys.svg

<svg viewBox="0 128 1024 704" xmlns="http://www.w3.org/2000/svg"><path d="m125.5 832c-16.667 0-32.583-3.417-47.75-10.25s-28.5-16-40-27.5-20.667-24.833-27.5-40c-6.8333-15.167-10.25-31.083-10.25-47.75v-453c0-16.667 3.4167-32.583 10.25-47.75 6.8333-15.167 16-28.5 27.5-40s24.833-20.667 40-27.5 31.083-10.25 47.75-10.25h773c16.667 0 32.583 3.417 47.75 10.25s28.5 16 40 27.5 20.67 24.833 27.5 40 10.25 31.083 10.25 47.75v453c0 16.667-3.42 32.583-10.25 47.75s-16 28.5-27.5 40-24.833 20.667-40 27.5-31.083 10.25-47.75 10.25zm770.5-64c9 0 17.333-1.667 25-5s14.417-7.917 20.25-13.75 10.417-12.583 13.75-20.25 5-16 5-25v-448c0-8.667-1.667-16.917-5-24.75s-7.917-14.667-13.75-20.5-12.667-10.417-20.5-13.75-16.083-5-24.75-5h-768c-9 0-17.333 1.667-25 5-7.6667 3.333-14.417 7.917-20.25 13.75s-10.417 12.583-13.75 20.25-5 16-5 25v448c0 9 1.6667 17.417 5 25.25s7.8333 14.583 13.5 20.25 12.417 10.167 20.25 13.5c7.833 3.333 16.25 5 25.25 5zm-736-432c0-13.333 4.667-24.667 14-34s20.667-14 34-14 24.667 4.667 34 14 14 20.667 14 34-4.667 24.667-14 34-20.667 14-34 14-24.667-4.667-34-14-14-20.667-14-34zm192 0c0-13.333 4.667-24.667 14-34s20.667-14 34-14 24.667 4.667 34 14 14 20.667 14 34-4.667 24.667-14 34-20.667 14-34 14-24.667-4.667-34-14-14-20.667-14-34zm192 0c0-13.333 4.667-24.667 14-34s20.667-14 34-14 24.667 4.667 34 14 14 20.667 14 34-4.667 24.667-14 34-20.667 14-34 14-24.667-4.667-34-14-14-20.667-14-34zm192 0c0-13.333 4.667-24.667 14-34s20.667-14 34-14 24.667 4.667 34 14 14 20.667 14 34-4.667 24.667-14 34-20.667 14-34 14-24.667-4.667-34-14-14-20.667-14-34zm-448 192c0-13.333 4.667-24.667 14-34s20.667-14 34-14 24.667 4.667 34 14 14 20.667 14 34-4.667 24.667-14 34-20.667 14-34 14-24.667-4.667-34-14-14-20.667-14-34zm192 0c0-13.333 4.667-24.667 14-34s20.667-14 34-14 24.667 4.667 34 14 14 20.667 14 34-4.667 24.667-14 34-20.667 14-34 14-24.667-4.667-34-14-14-20.667-14-34zm192 0c0-13.333 4.667-24.667 14-34s20.667-14 34-14 24.667 4.667 34 14 14 20.667 14 34-4.667 24.667-14 34-20.667 14-34 14-24.667-4.667-34-14-14-20.667-14-34zm-448 176c-8.667 0-16.167-3.167-22.5-9.5s-9.5-13.833-9.5-22.5 3.167-16.167 9.5-22.5 13.833-9.5 22.5-9.5h576c8.667 0 16.167 3.167 22.5 9.5s9.5 13.833 9.5 22.5-3.167 16.167-9.5 22.5-13.833 9.5-22.5 9.5z" fill="#fff"></path></svg>

<!-- Exported by Character Map UWP -->
<svg height="100%" viewBox="0 128 1024 704" width="100%" xmlns="http://www.w3.org/2000/svg" xmlns:xlink="http://www.w3.org/1999/xlink">
  <path d="M125.5,832C108.833,832 92.9167,828.583 77.75,821.75C62.5833,814.917 49.25,805.75 37.75,794.25C26.25,782.75 17.0833,769.417 10.25,754.25C3.41667,739.083 0,723.167 0,706.5L0,253.5C0,236.833 3.41667,220.917 10.25,205.75C17.0833,190.583 26.25,177.25 37.75,165.75C49.25,154.25 62.5833,145.083 77.75,138.25C92.9167,131.417 108.833,128 125.5,128L898.5,128C915.167,128 931.083,131.417 946.25,138.25C961.417,145.083 974.75,154.25 986.25,165.75C997.75,177.25 1006.92,190.583 1013.75,205.75C1020.58,220.917 1024,236.833 1024,253.5L1024,706.5C1024,723.167 1020.58,739.083 1013.75,754.25C1006.92,769.417 997.75,782.75 986.25,794.25C974.75,805.75 961.417,814.917 946.25,821.75C931.083,828.583 915.167,832 898.5,832ZM896,768C905,768 913.333,766.333 921,763C928.667,759.667 935.417,755.083 941.25,749.25C947.083,743.417 951.667,736.667 955,729C958.333,721.333 960,713 960,704L960,256C960,247.333 958.333,239.083 955,231.25C951.667,223.417 947.083,216.583 941.25,210.75C935.417,204.917 928.583,200.333 920.75,197C912.917,193.667 904.667,192 896,192L128,192C119,192 110.667,193.667 103,197C95.3333,200.333 88.5833,204.917 82.75,210.75C76.9167,216.583 72.3333,223.333 69,231C65.6667,238.667 64,247 64,256L64,704C64,713 65.6667,721.417 69,729.25C72.3333,737.083 76.8333,743.833 82.5,749.5C88.1667,755.167 94.9167,759.667 102.75,763C110.583,766.333 119,768 128,768ZM160,336C160,322.667 164.667,311.333 174,302C183.333,292.667 194.667,288 208,288C221.333,288 232.667,292.667 242,302C251.333,311.333 256,322.667 256,336C256,349.333 251.333,360.667 242,370C232.667,379.333 221.333,384 208,384C194.667,384 183.333,379.333 174,370C164.667,360.667 160,349.333 160,336ZM352,336C352,322.667 356.667,311.333 366,302C375.333,292.667 386.667,288 400,288C413.333,288 424.667,292.667 434,302C443.333,311.333 448,322.667 448,336C448,349.333 443.333,360.667 434,370C424.667,379.333 413.333,384 400,384C386.667,384 375.333,379.333 366,370C356.667,360.667 352,349.333 352,336ZM544,336C544,322.667 548.667,311.333 558,302C567.333,292.667 578.667,288 592,288C605.333,288 616.667,292.667 626,302C635.333,311.333 640,322.667 640,336C640,349.333 635.333,360.667 626,370C616.667,379.333 605.333,384 592,384C578.667,384 567.333,379.333 558,370C548.667,360.667 544,349.333 544,336ZM736,336C736,322.667 740.667,311.333 750,302C759.333,292.667 770.667,288 784,288C797.333,288 808.667,292.667 818,302C827.333,311.333 832,322.667 832,336C832,349.333 827.333,360.667 818,370C808.667,379.333 797.333,384 784,384C770.667,384 759.333,379.333 750,370C740.667,360.667 736,349.333 736,336ZM288,528C288,514.667 292.667,503.333 302,494C311.333,484.667 322.667,480 336,480C349.333,480 360.667,484.667 370,494C379.333,503.333 384,514.667 384,528C384,541.333 379.333,552.667 370,562C360.667,571.333 349.333,576 336,576C322.667,576 311.333,571.333 302,562C292.667,552.667 288,541.333 288,528ZM480,528C480,514.667 484.667,503.333 494,494C503.333,484.667 514.667,480 528,480C541.333,480 552.667,484.667 562,494C571.333,503.333 576,514.667 576,528C576,541.333 571.333,552.667 562,562C552.667,571.333 541.333,576 528,576C514.667,576 503.333,571.333 494,562C484.667,552.667 480,541.333 480,528ZM672,528C672,514.667 676.667,503.333 686,494C695.333,484.667 706.667,480 720,480C733.333,480 744.667,484.667 754,494C763.333,503.333 768,514.667 768,528C768,541.333 763.333,552.667 754,562C744.667,571.333 733.333,576 720,576C706.667,576 695.333,571.333 686,562C676.667,552.667 672,541.333 672,528ZM224,704C215.333,704 207.833,700.833 201.5,694.5C195.167,688.167 192,680.667 192,672C192,663.333 195.167,655.833 201.5,649.5C207.833,643.167 215.333,640 224,640L800,640C808.667,640 816.167,643.167 822.5,649.5C828.833,655.833 832,663.333 832,672C832,680.667 828.833,688.167 822.5,694.5C816.167,700.833 808.667,704 800,704Z" fill="#FFFFFF" fill-opacity="1">
  </path>
</svg>
